X:181
T: Die Mordeltern
N: Q0085W
O: Mitteleuropa, Deutschland (BRD) , Nordbayern, Roehn
R: Ballade, Habgier, Mord, Reue, Selbstmord
M: 3/4
L: 1/8
K: G
DGA | B3cAB | G2z
ABc | d3ecd | B2z3
d | d3ccB | B2A2z
e | e3edcB | A2Gz2
d | d3ccB | B2A2z
e | e3edcB | A2G

